X:1
T:J. B. Loeillet de Gant
T:III Vivace
T:Sonata VIII - dalle 12 Sonate Op.1
%%score 1 2
L:1/8
Q:1/4=172
M:3/4
K:F
V:1 treble nm="Flute" snm="Fl."
V:2 bass nm="Violoncello" snm="Vc."
V:1
"^Vivace" z6 | z6 |: d2 f2 a2 | ^c2 e2 g2 | f4 e2 | f2 e2 d2 | f2 a2 c'2 | e2 g2 b2 | a4 g2 | %9
 a2 g2 f2 | a2 b2 a2 | g2 f2 e2 | g2 a2 g2 | f2 e2 d2 | f2 g2 f2 | e2 f2 e2 | d2 gfed | ^c6 :: %18
 A2 c2 e2 | ^G2 =B2 d2 | c4 =B2 | c2 =B2 A2 | c2 e2 g2 | =B2 d2 f2 | e4 d2 | e2 d2 c2 | g3 a g2 | %27
 g4 f2 | f2 g2 f2 | f4 e2 | g2 a2 g2 | c'2 f2 e2 | d4 c2 | c6 |!p! g2 a2 g2 | c'2 f2 e2 | d4 c2 | %37
 c6 | e2 =B2 d2 | c2 =B2 A2 | a2 =b2 a2 | ^g4 e2 | e2 d2 e2 | f2 d2 c2 | =B2 c2 d2 | e2 c2 =B2 | %46
 A2 =B2 c2 | d6 | d2 c2 =B2 | c4 e2 | a2 =b2 a2 | ^g4 e2 | a2 =b2 c'2 | d'2 c'2 =b2 | c'3 =b a2 | %55
 a6 | c'2 d'2 c'2 | f2 g2 a2 | a2 g2 f2 | e4 c2 | f2 g2 c2 | d4 d2 | g2 a2 d2 | e4 c2 | c'2 b2 a2 | %65
 g2 c2 f2- | f3 g e2 | f6 | d2 f2 a2 | ^c2 e2 g2 | f4 e2 | f2 e2 d2 | f2 a2 c'2 | e2 g2 b2 | %74
 a4 g2 | a2 g2 f2 | a4 e2 | f2 e2 d2 | g2 e2 d2 | ^c4 A2 | a2 =b2 ^c'2 | d'2 d2 e2 | f3 e d2 | d6 | %84
 A2 =B2 ^c2 | d6 | e2 A2 ^c2 | d6 |] %88
V:2
 z6 | z6 |: z6 | z6 | D,2 A,2 A,,2 | D,6 | z6 | z6 | F,2 C2 C,2 | F,6 | F,6 | E,6 | ^C,6 | D,6 | %14
 D6 | C6 | B,6 | A,6 :: z6 | z6 | A,2 E,2 E,,2 | A,,6 | z6 | z6 | C,2 G,2 G,,2 | C,6 | E,4 E,2 | %27
 A,4 A,,2 | D,4 D,2 | G,4 G,,2 | E,4 E,2 | A,2 =B,2 C2 | F,2 G,2 G,,2 | C,6 | E,4 E,2 | %35
 A,,2 =B,,2 C,2 | F,,2 G,,2 G,2 | C,6 | ^G,6 | A,6 | F,4 D,2 | E,2 E2 B,2 | C4 C,2 | D,4 z2 | %44
 G,4 z2 | C,4 z2 | F,4 z2 | =B,2 ^G,2 ^F,2 | E,6 | A,4 G,2 | F,2 D,4 | E,2 E2 D2 | C2 =B,2 A,2 | %53
 ^G,2 A,2 D,2 | E,2 E,,4 | A,,6 | A,6 | D6 | G,6 | C4 B,2 | A,6 | B,6 | =B,6 | C4 B,2 | %64
 A,2 G,2 F,2 | E,4 D,2 | B,,2 C,2 C,,2 | F,,6 | z6 | z4 z z | D,2 A,2 A,,2 | D,6 | z z4 z | z6 | %74
 F,2 C2 C,2 | F,6 | ^C,6 | D,6 | B,,2 G,,4 | A,,2 A,2 G,2 | F,4 E,2 | F,4 G,2 | A,4 A,,2 | %83
 D,4 E,2 | F,4 E,2 | F,2 E,2 D,2 | G,2 A,2 A,,2 | D,6 |] %88

